!!!OTL: Folk song Number 17
!!!CNT: Chinese
**kern
*k[f#c#]
*M2/4
=1
(16ff#
4..ee;)
=2
8ff#
8ee
8ff#
[8b
=3
4b]
8b
(16ee
16ff#)
=4
(16ff#
4..ee)
!! page 11
=5
(16b
16dd)
8ee
8a
(16b
[16a
=6
4.a;)]
(16dd
16ee)
=7
(8dd
8a)
[4b
=8
4b]
[4a
=9
2a]
=10
8ee
(16ee
16ff#)
8b
8ff#;
=11
8dd
(16b
16ff#)
(16ff#
8.ee;)
=12
(16b
16dd)
8ee
8dd
(16d
[16a
=13
2a)]
=14
(16dd
16a)
8b
[4b
=15
4b]
[4a
=16
2a]
=17
4.e
8r
8r
==
*-
!!!PPR: Yin yueh ch'u pan she
!!!OPR: Chung-kuo min ko Chung-kuo yin yueh yen chiu so pien [Chinese folk songs]
!!!OCL: Chung-kuo yin yueh yen chiu so
!!!PPP: Beijing, China
!!!PDT: 1959///
!!!SML: Edward Johnson Library, University of Toronto M1804.C4694C5
!!!PPG: pp.10-11
!!!ENC: David Huron
!!!EMD: Paul von Hippel updated this file in the following ways (1998/9/29/):
!!!EMD:  (1) changed the representation of slurs from curly braces to parentheses 
!!!EMD:  (2) changed freeform comments into reference records and tandem interpretations
!!!EMD:  (3) corrected the author, title, author, and call number of the printed source 
!!!EEV: Version 2.0
